X:76
T:Munster Leaf, The  
B:CGI.118
F:file ID jcgi/76munster
Z:bill@capeirish.com
Q:70
L:1/8
M:3/4
K:Dm 
"slow"
A>G|A4 ^c2|d4 d>e|f2 fagf|e3c A2|
f2 fagf|e4 ge|d2 ^c2 d2|e>d d2 :|
f>d|c>B A>G A>B|c3A f>d|c2 ABcA|AGF ED^C|
D>E F>G A>F|c3d c/d/He|E3D DE/F/|E>D D2 :|

